assets/images/map_logo.svg

<svg fill="none" height="30" viewBox="0 0 43 30" width="43" xmlns="http://www.w3.org/2000/svg"><g clip-rule="evenodd" fill="#000" fill-rule="evenodd"><path d="m0 24.8941c0 .6342.522274 1.1484 1.16653 1.1484.64426 0 1.16653-.5142 1.16653-1.1484 0-.6343-.52227-1.1484-1.16653-1.1484-.644256 0-1.16653.5141-1.16653 1.1484z"/><path d="m3.98896 24.8941c0 .6342.52226 1.1484 1.1665 1.1484s1.1665-.5142 1.1665-1.1484-.52226-1.1484-1.1665-1.1484-1.1665.5142-1.1665 1.1484z"/><path d="m.00005862 13.0212c0 .6342.52229038 1.1484 1.16653138 1.1484.64424 0 1.16653-.5142 1.16653-1.1484s-.52229-1.1483-1.16653-1.1483c-.644241 0-1.16653138.5141-1.16653138 1.1483z"/><path d="m35.9003 5.10602c0 .63421.5222 1.14834 1.1665 1.14834.6442 0 1.1665-.51413 1.1665-1.14834 0-.63422-.5223-1.14835-1.1665-1.14835-.6443 0-1.1665.51413-1.1665 1.14835z"/><path d="m.00005862 20.9364c0 .6343.52229038 1.1484 1.16653138 1.1484.64424 0 1.16653-.5141 1.16653-1.1484 0-.6342-.52229-1.1483-1.16653-1.1483-.644241 0-1.16653138.5141-1.16653138 1.1483z"/><path d="m3.98896 20.9364c0 .6342.52226 1.1483 1.1665 1.1483s1.1665-.5141 1.1665-1.1483-.52226-1.1484-1.1665-1.1484-1.1665.5142-1.1665 1.1484z"/><path d="m7.97786 24.8941c0 .6342.52227 1.1484 1.16653 1.1484s1.16651-.5142 1.16651-1.1484c0-.6343-.52225-1.1484-1.16651-1.1484s-1.16653.5141-1.16653 1.1484z"/><path d="m0 16.9788c0 .6342.52229 1.1483 1.16653 1.1483s1.16653-.5141 1.16653-1.1483-.52229-1.1484-1.16653-1.1484-1.16653.5142-1.16653 1.1484z"/><path d="m3.98896 16.9788c0 .6342.52226 1.1483 1.1665 1.1483s1.1665-.5141 1.1665-1.1483-.52226-1.1484-1.1665-1.1484-1.1665.5142-1.1665 1.1484z"/><path d="m3.98896 28.8517c0 .6342.52226 1.1483 1.1665 1.1483s1.1665-.5141 1.1665-1.1483c0-.6343-.52226-1.1484-1.1665-1.1484s-1.1665.5141-1.1665 1.1484z"/><path d="m3.98896 13.0212c0 .6342.52226 1.1484 1.1665 1.1484s1.1665-.5142 1.1665-1.1484-.52226-1.1483-1.1665-1.1483-1.1665.5141-1.1665 1.1483z"/><path d="m39.8892 16.9788c0 .6343.5223 1.1484 1.1665 1.1484.6443 0 1.1665-.5141 1.1665-1.1484 0-.6342-.5222-1.1483-1.1665-1.1483-.6442 0-1.1665.5141-1.1665 1.1483z"/><path d="m39.8892 9.06362c0 .63422.5223 1.14838 1.1665 1.14838.6443 0 1.1665-.51416 1.1665-1.14838 0-.63421-.5222-1.14835-1.1665-1.14835-.6442 0-1.1665.51414-1.1665 1.14835z"/><path d="m39.8892 5.10602c0 .63421.5223 1.14834 1.1665 1.14834.6443 0 1.1665-.51413 1.1665-1.14834 0-.63422-.5222-1.14835-1.1665-1.14835-.6442 0-1.1665.51413-1.1665 1.14835z"/><path d="m19.9446 20.9364c0 .6343.5223 1.1484 1.1665 1.1484.6443 0 1.1665-.5141 1.1665-1.1484 0-.6342-.5222-1.1483-1.1665-1.1483-.6442 0-1.1665.5141-1.1665 1.1483z"/><path d="m31.9114 9.06362c0 .63422.5222 1.14838 1.1665 1.14838.6442 0 1.1665-.51416 1.1665-1.14838 0-.63421-.5223-1.14835-1.1665-1.14835-.6443 0-1.1665.51414-1.1665 1.14835z"/><path d="m39.8892 13.0212c0 .6342.5223 1.1484 1.1665 1.1484.6443 0 1.1665-.5142 1.1665-1.1484s-.5222-1.1483-1.1665-1.1483c-.6442 0-1.1665.5141-1.1665 1.1483z"/><path d="m35.9003 9.06362c0 .63422.5222 1.14838 1.1665 1.14838.6442 0 1.1665-.51416 1.1665-1.14838 0-.63421-.5223-1.14835-1.1665-1.14835-.6443 0-1.1665.51414-1.1665 1.14835z"/><path d="m23.9335 1.14835c0 .63421.5223 1.14835 1.1665 1.14835.6443 0 1.1665-.51414 1.1665-1.14835 0-.634217-.5222-1.14835-1.1665-1.14835-.6442 0-1.1665.514133-1.1665 1.14835z"/><path d="m15.9557 5.10602c0 .63421.5223 1.14834 1.1665 1.14834.6443 0 1.1665-.51413 1.1665-1.14834 0-.63422-.5222-1.14835-1.1665-1.14835-.6442 0-1.1665.51413-1.1665 1.14835z"/><path d="m27.9225 5.10602c0 .63421.5222 1.14834 1.1665 1.14834.6442 0 1.1665-.51413 1.1665-1.14834 0-.63422-.5223-1.14835-1.1665-1.14835-.6443 0-1.1665.51413-1.1665 1.14835z"/><path d="m15.9557 1.14835c0 .63421.5223 1.14835 1.1665 1.14835.6443 0 1.1665-.51414 1.1665-1.14835 0-.634217-.5222-1.14835-1.1665-1.14835-.6442 0-1.1665.514133-1.1665 1.14835z"/><path d="m35.9003 16.9788c0 .6343.5222 1.1484 1.1665 1.1484.6442 0 1.1665-.5141 1.1665-1.1484 0-.6342-.5223-1.1483-1.1665-1.1483-.6443 0-1.1665.5141-1.1665 1.1483z"/><path d="m31.9114 16.9788c0 .6342.5222 1.1484 1.1665 1.1484.6442 0 1.1665-.5142 1.1665-1.1484s-.5223-1.1483-1.1665-1.1483c-.6443 0-1.1665.5141-1.1665 1.1483z"/><path d="m31.9114 5.10602c0 .63421.5222 1.14834 1.1665 1.14834.6442 0 1.1665-.51413 1.1665-1.14834 0-.63422-.5223-1.14835-1.1665-1.14835-.6443 0-1.1665.51413-1.1665 1.14835z"/><path d="m31.9114 13.0212c0 .6342.5222 1.1484 1.1665 1.1484.6442 0 1.1665-.5142 1.1665-1.1484s-.5223-1.1483-1.1665-1.1483c-.6443 0-1.1665.5141-1.1665 1.1483z"/><path d="m35.9003 13.0212c0 .6342.5222 1.1484 1.1665 1.1484.6442 0 1.1665-.5142 1.1665-1.1484s-.5223-1.1483-1.1665-1.1483c-.6443 0-1.1665.5141-1.1665 1.1483z"/><path d="m19.9446 1.14835c0 .63421.5223 1.14835 1.1665 1.14835.6443 0 1.1665-.51414 1.1665-1.14835 0-.634217-.5222-1.14835-1.1665-1.14835-.6442 0-1.1665.514133-1.1665 1.14835z"/><path d="m11.9668 13.0212c0 .6342.5223 1.1484 1.1665 1.1484.6443 0 1.1665-.5142 1.1665-1.1484s-.5222-1.1483-1.1665-1.1483c-.6442 0-1.1665.5141-1.1665 1.1483z"/><path d="m7.97786 13.0212c0 .6342.52229 1.1484 1.16653 1.1484s1.16651-.5142 1.16651-1.1484-.52227-1.1483-1.16651-1.1483-1.16653.5141-1.16653 1.1483z"/><path d="m11.9668 16.9788c0 .6343.5223 1.1484 1.1665 1.1484.6443 0 1.1665-.5141 1.1665-1.1484 0-.6342-.5222-1.1483-1.1665-1.1483-.6442 0-1.1665.5141-1.1665 1.1483z"/><path d="m7.97786 16.9788c0 .6342.52229 1.1483 1.16653 1.1483s1.16651-.5141 1.16651-1.1483-.52227-1.1484-1.16651-1.1484-1.16653.5142-1.16653 1.1484z"/><path d="m7.97786 20.9364c0 .6342.52229 1.1483 1.16653 1.1483s1.16651-.5141 1.16651-1.1483-.52227-1.1484-1.16651-1.1484-1.16653.5142-1.16653 1.1484z"/><path d="m19.9446 13.0212c0 .6342.5223 1.1484 1.1665 1.1484.6443 0 1.1665-.5142 1.1665-1.1484s-.5222-1.1483-1.1665-1.1483c-.6442 0-1.1665.5141-1.1665 1.1483z"/><path d="m19.9446 9.06362c0 .63422.5223 1.14838 1.1665 1.14838.6443 0 1.1665-.51416 1.1665-1.14838 0-.63421-.5222-1.14835-1.1665-1.14835-.6442 0-1.1665.51414-1.1665 1.14835z"/><path d="m15.9557 9.06362c0 .63422.5223 1.14838 1.1665 1.14838.6443 0 1.1665-.51416 1.1665-1.14838 0-.63421-.5222-1.14835-1.1665-1.14835-.6442 0-1.1665.51414-1.1665 1.14835z"/><path d="m15.9557 13.0212c0 .6342.5223 1.1484 1.1665 1.1484.6443 0 1.1665-.5142 1.1665-1.1484s-.5222-1.1483-1.1665-1.1483c-.6442 0-1.1665.5141-1.1665 1.1483z"/><path d="m27.9225 16.9788c0 .6343.5222 1.1484 1.1665 1.1484.6442 0 1.1665-.5141 1.1665-1.1484 0-.6342-.5223-1.1483-1.1665-1.1483-.6443 0-1.1665.5141-1.1665 1.1483z"/><path d="m19.9446 5.10602c0 .63421.5223 1.14834 1.1665 1.14834.6443 0 1.1665-.51413 1.1665-1.14834 0-.63422-.5222-1.14835-1.1665-1.14835-.6442 0-1.1665.51413-1.1665 1.14835z"/><path d="m23.9335 20.9364c0 .6343.5223 1.1484 1.1665 1.1484.6443 0 1.1665-.5141 1.1665-1.1484 0-.6342-.5222-1.1483-1.1665-1.1483-.6442 0-1.1665.5141-1.1665 1.1483z"/><path d="m15.9557 16.9788c0 .6343.5223 1.1484 1.1665 1.1484.6443 0 1.1665-.5141 1.1665-1.1484 0-.6342-.5222-1.1483-1.1665-1.1483-.6442 0-1.1665.5141-1.1665 1.1483z"/><path d="m23.9335 5.10602c0 .63421.5223 1.14834 1.1665 1.14834.6443 0 1.1665-.51413 1.1665-1.14834 0-.63422-.5222-1.14835-1.1665-1.14835-.6442 0-1.1665.51413-1.1665 1.14835z"/><path d="m11.9668 9.06362c0 .63422.5223 1.14838 1.1665 1.14838.6443 0 1.1665-.51416 1.1665-1.14838 0-.63421-.5222-1.14835-1.1665-1.14835-.6442 0-1.1665.51414-1.1665 1.14835z"/><path d="m19.9446 16.9788c0 .6343.5223 1.1484 1.1665 1.1484.6443 0 1.1665-.5141 1.1665-1.1484 0-.6342-.5222-1.1483-1.1665-1.1483-.6442 0-1.1665.5141-1.1665 1.1483z"/><path d="m27.9225 9.06362c0 .63422.5222 1.14838 1.1665 1.14838.6442 0 1.1665-.51416 1.1665-1.14838 0-.63421-.5223-1.14835-1.1665-1.14835-.6443 0-1.1665.51414-1.1665 1.14835z"/><path d="m27.9225 13.0212c0 .6342.5222 1.1484 1.1665 1.1484.6442 0 1.1665-.5142 1.1665-1.1484s-.5223-1.1483-1.1665-1.1483c-.6443 0-1.1665.5141-1.1665 1.1483z"/><path d="m23.9335 16.9788c0 .6343.5223 1.1484 1.1665 1.1484.6443 0 1.1665-.5141 1.1665-1.1484 0-.6342-.5222-1.1483-1.1665-1.1483-.6442 0-1.1665.5141-1.1665 1.1483z"/><path d="m11.9668 20.9364c0 .6343.5223 1.1484 1.1665 1.1484.6443 0 1.1665-.5141 1.1665-1.1484 0-.6342-.5222-1.1483-1.1665-1.1483-.6442 0-1.1665.5141-1.1665 1.1483z"/><path d="m23.9335 9.06362c0 .63422.5223 1.14838 1.1665 1.14838.6443 0 1.1665-.51416 1.1665-1.14838 0-.63421-.5222-1.14835-1.1665-1.14835-.6442 0-1.1665.51414-1.1665 1.14835z"/><path d="m23.9335 13.0212c0 .6342.5223 1.1484 1.1665 1.1484.6443 0 1.1665-.5142 1.1665-1.1484s-.5222-1.1483-1.1665-1.1483c-.6442 0-1.1665.5141-1.1665 1.1483z"/></g></svg>

<svg width="43" height="30" viewBox="0 0 43 30" fill="none" xmlns="http://www.w3.org/2000/svg"><path fill-rule="evenodd" clip-rule="evenodd" d="M0 24.8941C0 25.5283 0.522274 26.0425 1.16653 26.0425C1.81079 26.0425 2.33306 25.5283 2.33306 24.8941C2.33306 24.2598 1.81079 23.7457 1.16653 23.7457C0.522274 23.7457 0 24.2598 0 24.8941Z" fill="#000"/><path fill-rule="evenodd" clip-rule="evenodd" d="M3.98896 24.8941C3.98896 25.5283 4.51122 26.0425 5.15546 26.0425C5.7997 26.0425 6.32196 25.5283 6.32196 24.8941C6.32196 24.2599 5.7997 23.7457 5.15546 23.7457C4.51122 23.7457 3.98896 24.2599 3.98896 24.8941Z" fill="#000"/><path fill-rule="evenodd" clip-rule="evenodd" d="M5.86155e-05 13.0212C5.86155e-05 13.6554 0.522349 14.1696 1.16659 14.1696C1.81083 14.1696 2.33312 13.6554 2.33312 13.0212C2.33312 12.387 1.81083 11.8729 1.16659 11.8729C0.522349 11.8729 5.86155e-05 12.387 5.86155e-05 13.0212Z" fill="#000"/><path fill-rule="evenodd" clip-rule="evenodd" d="M35.9003 5.10602C35.9003 5.74023 36.4225 6.25436 37.0668 6.25436C37.711 6.25436 38.2333 5.74023 38.2333 5.10602C38.2333 4.4718 37.711 3.95767 37.0668 3.95767C36.4225 3.95767 35.9003 4.4718 35.9003 5.10602Z" fill="#000"/><path fill-rule="evenodd" clip-rule="evenodd" d="M5.86155e-05 20.9364C5.86155e-05 21.5707 0.522349 22.0848 1.16659 22.0848C1.81083 22.0848 2.33312 21.5707 2.33312 20.9364C2.33312 20.3022 1.81083 19.7881 1.16659 19.7881C0.522349 19.7881 5.86155e-05 20.3022 5.86155e-05 20.9364Z" fill="#000"/><path fill-rule="evenodd" clip-rule="evenodd" d="M3.98896 20.9364C3.98896 21.5706 4.51122 22.0847 5.15546 22.0847C5.7997 22.0847 6.32196 21.5706 6.32196 20.9364C6.32196 20.3022 5.7997 19.788 5.15546 19.788C4.51122 19.788 3.98896 20.3022 3.98896 20.9364Z" fill="#000"/><path fill-rule="evenodd" clip-rule="evenodd" d="M7.97786 24.8941C7.97786 25.5283 8.50013 26.0425 9.14439 26.0425C9.78865 26.0425 10.3109 25.5283 10.3109 24.8941C10.3109 24.2598 9.78865 23.7457 9.14439 23.7457C8.50013 23.7457 7.97786 24.2598 7.97786 24.8941Z" fill="#000"/><path fill-rule="evenodd" clip-rule="evenodd" d="M0 16.9788C0 17.613 0.52229 18.1271 1.16653 18.1271C1.81077 18.1271 2.33306 17.613 2.33306 16.9788C2.33306 16.3446 1.81077 15.8304 1.16653 15.8304C0.52229 15.8304 0 16.3446 0 16.9788Z" fill="#000"/><path fill-rule="evenodd" clip-rule="evenodd" d="M3.98896 16.9788C3.98896 17.613 4.51122 18.1271 5.15546 18.1271C5.7997 18.1271 6.32196 17.613 6.32196 16.9788C6.32196 16.3446 5.7997 15.8304 5.15546 15.8304C4.51122 15.8304 3.98896 16.3446 3.98896 16.9788Z" fill="#000"/><path fill-rule="evenodd" clip-rule="evenodd" d="M3.98896 28.8517C3.98896 29.4859 4.51122 30 5.15546 30C5.7997 30 6.32196 29.4859 6.32196 28.8517C6.32196 28.2174 5.7997 27.7033 5.15546 27.7033C4.51122 27.7033 3.98896 28.2174 3.98896 28.8517Z" fill="#000"/><path fill-rule="evenodd" clip-rule="evenodd" d="M3.98896 13.0212C3.98896 13.6554 4.51122 14.1696 5.15546 14.1696C5.7997 14.1696 6.32196 13.6554 6.32196 13.0212C6.32196 12.387 5.7997 11.8729 5.15546 11.8729C4.51122 11.8729 3.98896 12.387 3.98896 13.0212Z" fill="#000"/><path fill-rule="evenodd" clip-rule="evenodd" d="M39.8892 16.9788C39.8892 17.6131 40.4115 18.1272 41.0557 18.1272C41.7 18.1272 42.2222 17.6131 42.2222 16.9788C42.2222 16.3446 41.7 15.8305 41.0557 15.8305C40.4115 15.8305 39.8892 16.3446 39.8892 16.9788Z" fill="#000"/><path fill-rule="evenodd" clip-rule="evenodd" d="M39.8892 9.06362C39.8892 9.69784 40.4115 10.212 41.0557 10.212C41.7 10.212 42.2222 9.69784 42.2222 9.06362C42.2222 8.42941 41.7 7.91527 41.0557 7.91527C40.4115 7.91527 39.8892 8.42941 39.8892 9.06362Z" fill="#000"/><path fill-rule="evenodd" clip-rule="evenodd" d="M39.8892 5.10602C39.8892 5.74023 40.4115 6.25436 41.0557 6.25436C41.7 6.25436 42.2222 5.74023 42.2222 5.10602C42.2222 4.4718 41.7 3.95767 41.0557 3.95767C40.4115 3.95767 39.8892 4.4718 39.8892 5.10602Z" fill="#000"/><path fill-rule="evenodd" clip-rule="evenodd" d="M19.9446 20.9364C19.9446 21.5707 20.4669 22.0848 21.1111 22.0848C21.7554 22.0848 22.2776 21.5707 22.2776 20.9364C22.2776 20.3022 21.7554 19.7881 21.1111 19.7881C20.4669 19.7881 19.9446 20.3022 19.9446 20.9364Z" fill="#000"/><path fill-rule="evenodd" clip-rule="evenodd" d="M31.9114 9.06362C31.9114 9.69784 32.4336 10.212 33.0779 10.212C33.7221 10.212 34.2444 9.69784 34.2444 9.06362C34.2444 8.42941 33.7221 7.91527 33.0779 7.91527C32.4336 7.91527 31.9114 8.42941 31.9114 9.06362Z" fill="#000"/><path fill-rule="evenodd" clip-rule="evenodd" d="M39.8892 13.0212C39.8892 13.6554 40.4115 14.1696 41.0557 14.1696C41.7 14.1696 42.2222 13.6554 42.2222 13.0212C42.2222 12.387 41.7 11.8729 41.0557 11.8729C40.4115 11.8729 39.8892 12.387 39.8892 13.0212Z" fill="#000"/><path fill-rule="evenodd" clip-rule="evenodd" d="M35.9003 9.06362C35.9003 9.69784 36.4225 10.212 37.0668 10.212C37.711 10.212 38.2333 9.69784 38.2333 9.06362C38.2333 8.42941 37.711 7.91527 37.0668 7.91527C36.4225 7.91527 35.9003 8.42941 35.9003 9.06362Z" fill="#000"/><path fill-rule="evenodd" clip-rule="evenodd" d="M23.9335 1.14835C23.9335 1.78256 24.4558 2.2967 25.1 2.2967C25.7443 2.2967 26.2665 1.78256 26.2665 1.14835C26.2665 0.514133 25.7443 0 25.1 0C24.4558 0 23.9335 0.514133 23.9335 1.14835Z" fill="#000"/><path fill-rule="evenodd" clip-rule="evenodd" d="M15.9557 5.10602C15.9557 5.74023 16.478 6.25436 17.1222 6.25436C17.7665 6.25436 18.2887 5.74023 18.2887 5.10602C18.2887 4.4718 17.7665 3.95767 17.1222 3.95767C16.478 3.95767 15.9557 4.4718 15.9557 5.10602Z" fill="#000"/><path fill-rule="evenodd" clip-rule="evenodd" d="M27.9225 5.10602C27.9225 5.74023 28.4447 6.25436 29.089 6.25436C29.7332 6.25436 30.2555 5.74023 30.2555 5.10602C30.2555 4.4718 29.7332 3.95767 29.089 3.95767C28.4447 3.95767 27.9225 4.4718 27.9225 5.10602Z" fill="#000"/><path fill-rule="evenodd" clip-rule="evenodd" d="M15.9557 1.14835C15.9557 1.78256 16.478 2.2967 17.1222 2.2967C17.7665 2.2967 18.2887 1.78256 18.2887 1.14835C18.2887 0.514133 17.7665 0 17.1222 0C16.478 0 15.9557 0.514133 15.9557 1.14835Z" fill="#000"/><path fill-rule="evenodd" clip-rule="evenodd" d="M35.9003 16.9788C35.9003 17.6131 36.4225 18.1272 37.0668 18.1272C37.711 18.1272 38.2333 17.6131 38.2333 16.9788C38.2333 16.3446 37.711 15.8305 37.0668 15.8305C36.4225 15.8305 35.9003 16.3446 35.9003 16.9788Z" fill="#000"/><path fill-rule="evenodd" clip-rule="evenodd" d="M31.9114 16.9788C31.9114 17.613 32.4336 18.1272 33.0779 18.1272C33.7221 18.1272 34.2444 17.613 34.2444 16.9788C34.2444 16.3446 33.7221 15.8305 33.0779 15.8305C32.4336 15.8305 31.9114 16.3446 31.9114 16.9788Z" fill="#000"/><path fill-rule="evenodd" clip-rule="evenodd" d="M31.9114 5.10602C31.9114 5.74023 32.4336 6.25436 33.0779 6.25436C33.7221 6.25436 34.2444 5.74023 34.2444 5.10602C34.2444 4.4718 33.7221 3.95767 33.0779 3.95767C32.4336 3.95767 31.9114 4.4718 31.9114 5.10602Z" fill="#000"/><path fill-rule="evenodd" clip-rule="evenodd" d="M31.9114 13.0212C31.9114 13.6554 32.4336 14.1696 33.0779 14.1696C33.7221 14.1696 34.2444 13.6554 34.2444 13.0212C34.2444 12.387 33.7221 11.8729 33.0779 11.8729C32.4336 11.8729 31.9114 12.387 31.9114 13.0212Z" fill="#000"/><path fill-rule="evenodd" clip-rule="evenodd" d="M35.9003 13.0212C35.9003 13.6554 36.4225 14.1696 37.0668 14.1696C37.711 14.1696 38.2333 13.6554 38.2333 13.0212C38.2333 12.387 37.711 11.8729 37.0668 11.8729C36.4225 11.8729 35.9003 12.387 35.9003 13.0212Z" fill="#000"/><path fill-rule="evenodd" clip-rule="evenodd" d="M19.9446 1.14835C19.9446 1.78256 20.4669 2.2967 21.1111 2.2967C21.7554 2.2967 22.2776 1.78256 22.2776 1.14835C22.2776 0.514133 21.7554 0 21.1111 0C20.4669 0 19.9446 0.514133 19.9446 1.14835Z" fill="#000"/><path fill-rule="evenodd" clip-rule="evenodd" d="M11.9668 13.0212C11.9668 13.6554 12.4891 14.1696 13.1333 14.1696C13.7776 14.1696 14.2998 13.6554 14.2998 13.0212C14.2998 12.387 13.7776 11.8729 13.1333 11.8729C12.4891 11.8729 11.9668 12.387 11.9668 13.0212Z" fill="#000"/><path fill-rule="evenodd" clip-rule="evenodd" d="M7.97786 13.0212C7.97786 13.6554 8.50015 14.1696 9.14439 14.1696C9.78863 14.1696 10.3109 13.6554 10.3109 13.0212C10.3109 12.387 9.78863 11.8729 9.14439 11.8729C8.50015 11.8729 7.97786 12.387 7.97786 13.0212Z" fill="#000"/><path fill-rule="evenodd" clip-rule="evenodd" d="M11.9668 16.9788C11.9668 17.6131 12.4891 18.1272 13.1333 18.1272C13.7776 18.1272 14.2998 17.6131 14.2998 16.9788C14.2998 16.3446 13.7776 15.8305 13.1333 15.8305C12.4891 15.8305 11.9668 16.3446 11.9668 16.9788Z" fill="#000"/><path fill-rule="evenodd" clip-rule="evenodd" d="M7.97786 16.9788C7.97786 17.613 8.50015 18.1271 9.14439 18.1271C9.78863 18.1271 10.3109 17.613 10.3109 16.9788C10.3109 16.3446 9.78863 15.8304 9.14439 15.8304C8.50015 15.8304 7.97786 16.3446 7.97786 16.9788Z" fill="#000"/><path fill-rule="evenodd" clip-rule="evenodd" d="M7.97786 20.9364C7.97786 21.5706 8.50015 22.0847 9.14439 22.0847C9.78863 22.0847 10.3109 21.5706 10.3109 20.9364C10.3109 20.3022 9.78863 19.788 9.14439 19.788C8.50015 19.788 7.97786 20.3022 7.97786 20.9364Z" fill="#000"/><path fill-rule="evenodd" clip-rule="evenodd" d="M19.9446 13.0212C19.9446 13.6554 20.4669 14.1696 21.1111 14.1696C21.7554 14.1696 22.2776 13.6554 22.2776 13.0212C22.2776 12.387 21.7554 11.8729 21.1111 11.8729C20.4669 11.8729 19.9446 12.387 19.9446 13.0212Z" fill="#000"/><path fill-rule="evenodd" clip-rule="evenodd" d="M19.9446 9.06362C19.9446 9.69784 20.4669 10.212 21.1111 10.212C21.7554 10.212 22.2776 9.69784 22.2776 9.06362C22.2776 8.42941 21.7554 7.91527 21.1111 7.91527C20.4669 7.91527 19.9446 8.42941 19.9446 9.06362Z" fill="#000"/><path fill-rule="evenodd" clip-rule="evenodd" d="M15.9557 9.06362C15.9557 9.69784 16.478 10.212 17.1222 10.212C17.7665 10.212 18.2887 9.69784 18.2887 9.06362C18.2887 8.42941 17.7665 7.91527 17.1222 7.91527C16.478 7.91527 15.9557 8.42941 15.9557 9.06362Z" fill="#000"/><path fill-rule="evenodd" clip-rule="evenodd" d="M15.9557 13.0212C15.9557 13.6554 16.478 14.1696 17.1222 14.1696C17.7665 14.1696 18.2887 13.6554 18.2887 13.0212C18.2887 12.387 17.7665 11.8729 17.1222 11.8729C16.478 11.8729 15.9557 12.387 15.9557 13.0212Z" fill="#000"/><path fill-rule="evenodd" clip-rule="evenodd" d="M27.9225 16.9788C27.9225 17.6131 28.4447 18.1272 29.089 18.1272C29.7332 18.1272 30.2555 17.6131 30.2555 16.9788C30.2555 16.3446 29.7332 15.8305 29.089 15.8305C28.4447 15.8305 27.9225 16.3446 27.9225 16.9788Z" fill="#000"/><path fill-rule="evenodd" clip-rule="evenodd" d="M19.9446 5.10602C19.9446 5.74023 20.4669 6.25436 21.1111 6.25436C21.7554 6.25436 22.2776 5.74023 22.2776 5.10602C22.2776 4.4718 21.7554 3.95767 21.1111 3.95767C20.4669 3.95767 19.9446 4.4718 19.9446 5.10602Z" fill="#000"/><path fill-rule="evenodd" clip-rule="evenodd" d="M23.9335 20.9364C23.9335 21.5707 24.4558 22.0848 25.1 22.0848C25.7443 22.0848 26.2665 21.5707 26.2665 20.9364C26.2665 20.3022 25.7443 19.7881 25.1 19.7881C24.4558 19.7881 23.9335 20.3022 23.9335 20.9364Z" fill="#000"/><path fill-rule="evenodd" clip-rule="evenodd" d="M15.9557 16.9788C15.9557 17.6131 16.478 18.1272 17.1222 18.1272C17.7665 18.1272 18.2887 17.6131 18.2887 16.9788C18.2887 16.3446 17.7665 15.8305 17.1222 15.8305C16.478 15.8305 15.9557 16.3446 15.9557 16.9788Z" fill="#000"/><path fill-rule="evenodd" clip-rule="evenodd" d="M23.9335 5.10602C23.9335 5.74023 24.4558 6.25436 25.1 6.25436C25.7443 6.25436 26.2665 5.74023 26.2665 5.10602C26.2665 4.4718 25.7443 3.95767 25.1 3.95767C24.4558 3.95767 23.9335 4.4718 23.9335 5.10602Z" fill="#000"/><path fill-rule="evenodd" clip-rule="evenodd" d="M11.9668 9.06362C11.9668 9.69784 12.4891 10.212 13.1333 10.212C13.7776 10.212 14.2998 9.69784 14.2998 9.06362C14.2998 8.42941 13.7776 7.91527 13.1333 7.91527C12.4891 7.91527 11.9668 8.42941 11.9668 9.06362Z" fill="#000"/><path fill-rule="evenodd" clip-rule="evenodd" d="M19.9446 16.9788C19.9446 17.6131 20.4669 18.1272 21.1111 18.1272C21.7554 18.1272 22.2776 17.6131 22.2776 16.9788C22.2776 16.3446 21.7554 15.8305 21.1111 15.8305C20.4669 15.8305 19.9446 16.3446 19.9446 16.9788Z" fill="#000"/><path fill-rule="evenodd" clip-rule="evenodd" d="M27.9225 9.06362C27.9225 9.69784 28.4447 10.212 29.089 10.212C29.7332 10.212 30.2555 9.69784 30.2555 9.06362C30.2555 8.42941 29.7332 7.91527 29.089 7.91527C28.4447 7.91527 27.9225 8.42941 27.9225 9.06362Z" fill="#000"/><path fill-rule="evenodd" clip-rule="evenodd" d="M27.9225 13.0212C27.9225 13.6554 28.4447 14.1696 29.089 14.1696C29.7332 14.1696 30.2555 13.6554 30.2555 13.0212C30.2555 12.387 29.7332 11.8729 29.089 11.8729C28.4447 11.8729 27.9225 12.387 27.9225 13.0212Z" fill="#000"/><path fill-rule="evenodd" clip-rule="evenodd" d="M23.9335 16.9788C23.9335 17.6131 24.4558 18.1272 25.1 18.1272C25.7443 18.1272 26.2665 17.6131 26.2665 16.9788C26.2665 16.3446 25.7443 15.8305 25.1 15.8305C24.4558 15.8305 23.9335 16.3446 23.9335 16.9788Z" fill="#000"/><path fill-rule="evenodd" clip-rule="evenodd" d="M11.9668 20.9364C11.9668 21.5707 12.4891 22.0848 13.1333 22.0848C13.7776 22.0848 14.2998 21.5707 14.2998 20.9364C14.2998 20.3022 13.7776 19.7881 13.1333 19.7881C12.4891 19.7881 11.9668 20.3022 11.9668 20.9364Z" fill="#000"/><path fill-rule="evenodd" clip-rule="evenodd" d="M23.9335 9.06362C23.9335 9.69784 24.4558 10.212 25.1 10.212C25.7443 10.212 26.2665 9.69784 26.2665 9.06362C26.2665 8.42941 25.7443 7.91527 25.1 7.91527C24.4558 7.91527 23.9335 8.42941 23.9335 9.06362Z" fill="#000"/><path fill-rule="evenodd" clip-rule="evenodd" d="M23.9335 13.0212C23.9335 13.6554 24.4558 14.1696 25.1 14.1696C25.7443 14.1696 26.2665 13.6554 26.2665 13.0212C26.2665 12.387 25.7443 11.8729 25.1 11.8729C24.4558 11.8729 23.9335 12.387 23.9335 13.0212Z" fill="#000"/></svg>
